icons/evolvere-blue-folders-flat-vivid-dark-fallback/apps/64/megasync.svg

<?xml version="1.0" encoding="UTF-8" standalone="no"?>
<!-- Created with Inkscape (http://www.inkscape.org/) -->

<svg
   xmlns:dc="http://purl.org/dc/elements/1.1/"
   xmlns:cc="http://creativecommons.org/ns#"
   xmlns:rdf="http://www.w3.org/1999/02/22-rdf-syntax-ns#"
   xmlns:svg="http://www.w3.org/2000/svg"
   xmlns="http://www.w3.org/2000/svg"
   xmlns:sodipodi="http://sodipodi.sourceforge.net/DTD/sodipodi-0.dtd"
   xmlns:inkscape="http://www.inkscape.org/namespaces/inkscape"
   width="64"
   height="64"
   id="svg13094"
   version="1.1"
   inkscape:version="0.48.4 r9939"
   sodipodi:docname="megasync.svg">
  <sodipodi:namedview
     id="base"
     pagecolor="#ffffff"
     bordercolor="#666666"
     borderopacity="1.0"
     inkscape:pageopacity="0"
     inkscape:pageshadow="2"
     inkscape:zoom="8.0000004"
     inkscape:cx="50.040129"
     inkscape:cy="31.767355"
     inkscape:document-units="px"
     inkscape:current-layer="svg13094"
     showgrid="true"
     inkscape:snap-bbox="true"
     inkscape:bbox-paths="true"
     inkscape:bbox-nodes="true"
     inkscape:snap-bbox-edge-midpoints="true"
     inkscape:snap-bbox-midpoints="true"
     inkscape:object-paths="true"
     inkscape:snap-intersection-paths="true"
     inkscape:object-nodes="true"
     inkscape:snap-smooth-nodes="true"
     inkscape:snap-midpoints="true"
     inkscape:snap-object-midpoints="true"
     inkscape:snap-center="true"
     showguides="true"
     inkscape:guide-bbox="true"
     inkscape:window-width="1920"
     inkscape:window-height="1022"
     inkscape:window-x="-5"
     inkscape:window-y="23"
     inkscape:window-maximized="1"
     inkscape:snap-global="true"
     fit-margin-top="0"
     fit-margin-left="0"
     fit-margin-right="0"
     fit-margin-bottom="0"
     showborder="true"
     inkscape:showpageshadow="false"
     inkscape:snap-page="true">
    <inkscape:grid
       type="xygrid"
       id="grid3075"
       empspacing="5"
       visible="true"
       enabled="true"
       snapvisiblegridlinesonly="true"
       originx="1.6362304e-08px"
       originy="18px" />
  </sodipodi:namedview>
  <defs
     id="defs13096" />
  <metadata
     id="metadata13099">
    <rdf:RDF>
      <cc:Work
         rdf:about="">
        <dc:format>image/svg+xml</dc:format>
        <dc:type
           rdf:resource="http://purl.org/dc/dcmitype/StillImage" />
        <dc:title />
      </cc:Work>
    </rdf:RDF>
  </metadata>
  <path
     style="color:#000000;fill:#d9272e;fill-opacity:1;fill-rule:nonzero;stroke:none;stroke-width:2.28571415000000000;marker:none;visibility:visible;display:inline;overflow:visible;enable-background:accumulate"
     d="M 0 4 L 0 34 L 0 62 L 2 64 L 32 64 L 62 64 L 64 62 L 64 34 L 64 4 L 32 4 L 0 4 z "
     id="path6498" />
  <path
     style="color:#000000;fill:#ff798c;fill-opacity:1;fill-rule:nonzero;stroke:none;marker:none;visibility:visible;display:inline;overflow:visible;enable-background:accumulate"
     d="M 2 0 L 0 1 L 0 4 L 32 4 L 64 4 L 64 1 L 62 0 L 32 0 L 2 0 z "
     id="path6502" />
  <path
     style="fill:#ff8ca9;fill-opacity:1;fill-rule:nonzero"
     d="M 0,3 0,6 2,4 z"
     id="path4298"
     inkscape:connector-curvature="0"
     sodipodi:nodetypes="cccc" />
  <path
     d="M 64,6 62,4 64,3 z"
     id="path3028"
     style="fill:#e94a56;fill-opacity:0.99493408"
     inkscape:connector-curvature="0" />
  <g
     id="g3043"
     inkscape:export-filename="folder.png"
     inkscape:export-xdpi="90"
     inkscape:export-ydpi="90"
     transform="translate(-0.62500009,0.082283)" />
  <g
     id="scalable"
     transform="matrix(1.0385892,0,0,1.0385892,1214.7222,1878.8121)"
     inkscape:label="#g3701"
     style="fill:#ffffff" />
  <path
     style="color:#000000;fill:#f2f2f2;fill-opacity:1;fill-rule:nonzero;stroke:none;stroke-width:1;marker:none;visibility:visible;display:inline;overflow:visible;enable-background:accumulate"
     d="m 50,46.255727 c 0,0.594565 -0.47949,1.074054 -1.074055,1.074054 h -4.526371 c -0.594567,0 -1.074055,-0.479489 -1.074055,-1.074054 V 32.3122 c 0,-0.115071 -0.134262,-0.172615 -0.230154,-0.09589 l -9.589772,9.589772 c -0.824719,0.824719 -2.186467,0.824719 -3.011188,0 l -9.58977,-9.589775 c -0.07672,-0.07672 -0.230155,-0.01919 -0.230155,0.09589 v 13.943527 c 0,0.594566 -0.479489,1.074054 -1.074054,1.074054 H 15.074054 C 14.479488,47.329777 14,46.850289 14,46.255723 v -24.51145 c 0,-0.594565 0.479488,-1.074054 1.074054,-1.074054 h 3.107086 c 0.556207,0 1.112413,0.230154 1.515184,0.632925 l 11.929675,11.929674 c 0.210975,0.210975 0.537027,0.210975 0.748002,0 L 44.303676,21.303144 c 0.402769,-0.402771 0.939796,-0.632925 1.515183,-0.632925 h 3.107086 C 49.52051,20.670219 50,21.149708 50,21.744273 v 24.511454 z"
     id="path3867"
     inkscape:connector-curvature="0" />
</svg>

<svg xmlns="http://www.w3.org/2000/svg" viewBox="0 0 64 64"><g color="#000"><path d="m0 4v30 28l2 2h30 30l2-2v-28-30h-32-32" fill="#d9272e"/><path d="m2 0l-2 1v3h32 32v-3l-2-1h-30-30" fill="#ff798c"/></g><path d="m0 3v3l2-2z" fill="#ff8ca9"/><path d="m64 6l-2-2 2-1z" fill="#e94a56" fill-opacity=".995"/><path d="m50 46.26c0 .595-.479 1.074-1.074 1.074h-4.526c-.595 0-1.074-.479-1.074-1.074v-13.944c0-.115-.134-.173-.23-.096l-9.59 9.59c-.825.825-2.186.825-3.01 0l-9.59-9.59c-.077-.077-.23-.019-.23.096v13.944c0 .595-.479 1.074-1.074 1.074h-4.526c-.595 0-1.074-.479-1.074-1.074v-24.511c0-.595.479-1.074 1.074-1.074h3.107c.556 0 1.112.23 1.515.633l11.93 11.93c.211.211.537.211.748 0l11.93-11.93c.403-.403.94-.633 1.515-.633h3.107c.595 0 1.074.479 1.074 1.074v24.511" fill="#f2f2f2" color="#000"/></svg>
